X:267
%%etbk:tnset id:475,pos:1,rep:3x,ant:
%%etbk:wsite http://www.thesession.org/tunes/display/5405
%%etbk:pldat 2016-06-09T19:22,2016-06-08T16:41,2016-06-07T16:42,2016-06-06T18:33,2016-06-04T15:52,2016-06-02T19:05,2016-06-01T17:02,2016-05-31T17:09,2016-05-29T11:54,2016-05-19T18:29,2016-05-18T16:04,2016-05-17T15:47,2016-05-16T14:23,2016-05-15T14:48,2016-05-14T15:35,2016-05-13T17:18,2016-05-12T18:19,2016-05-11T16:53,2016-05-09T18:37,2016-04-30T17:12,2016-03-03T19:16,2016-03-02T16:52,2016-03-01T16:58,2016-02-29T19:11,2016-02-27T14:02,2016-02-22T18:36,2016-02-17T17:58,2016-02-04T18:30,2016-02-03T15:33,2016-02-02T16:04,2016-02-01T18:59,2016-01-30T13:56,2016-01-28T18:39,2016-01-27T17:01,2016-01-26T15:40,2016-01-24T14:56,2016-01-23T15:07,2016-01-21T18:53,2016-01-20T15:34,2016-01-18T18:43,2016-01-17T11:27,2016-01-16T14:47,2016-01-12T17:14,2016-01-04T18:37,2015-12-31T13:50,2015-12-27T13:58,2015-12-21T18:39,2015-12-06T14:16,2015-11-20T15:53,2015-11-19T18:14,2015-11-18T15:45,2015-11-17T16:13,2015-11-15T14:02,2015-11-14T14:44,2015-11-13T17:42,2015-11-12T18:35,2015-11-11T17:11,2015-11-10T16:08,2015-11-09T19:15,2015-11-08T12:08,2015-11-04T17:27,2015-10-31T17:17,2015-10-25T15:15,2015-10-24T14:42,2015-10-20T16:47,2015-10-17T14:53,2015-10-15T18:40,2015-10-14T17:04,2015-10-13T17:23,2015-10-12T18:39,2015-10-06T16:52,2015-09-30T16:46,2015-09-29T15:50,2015-09-28T19:04,2015-09-10T16:47,2015-09-09T16:47,2015-09-08T19:01,2015-09-07T18:30,2015-09-06T14:15,2015-09-03T17:10,2015-09-02T17:11,2015-09-01T17:25,2015-08-31T17:57,2015-08-30T15:10,2015-08-28T18:58,2015-08-27T18:58,2015-08-26T16:50,2015-08-24T19:06,2015-08-19T16:54,2015-08-18T16:36,2015-08-17T18:39,2015-08-16T13:55,2015-08-15T15:50,2015-05-05T15:40,2015-05-02T17:12,2014-04-30T15:41,2014-04-26T16:36,2014-03-09T15:23,2014-02-14T16:27,2014-02-11T16:24,2013-10-04T15:27,2013-05-12T18:30
T: Tommy McCarthy's
T: Chapel Bell, The
Z: Piano Box Version by Martin Fleischmann
H: Created 2013-02-19 /  Last Modified 2013-02-19
M: 6/8
L: 1/8
R: jig
K:Ddor
!1!D !3!(3D!2!D!1!D !1!D!2!E!4!G|!2!A2!4!d !3!cc!5!e|!4!d!3!c!2!A !2!A!1!G!2!E|!4!G!1!C!5!A !4!G!2!E!1!C|
!1!D!2!D!1!D !1!DEG|A2d cce|dcA AGE|GED DEG|
[A3D] DEG|A2d cce|dcA AGE|GCA GEC|
D (3DDD DEG|A2d cce|dcA AGE|GED DEG|
|:!2!A2!4!d !4!d!3!c!2!A|!3!c!4!d!5!e !5!e!1!G!4!d|!3!c!2!A!2!A !2!A!1!G!2!A|!3!c2e dcA|!2!A2d dcA|
|cde eGd|!3!c!2!AA !2!A!1!G!2!E|!4!GED DEG:||


